rospo-dark/16x16/panel/cantata-panel.svg

<svg height="22" width="22" xmlns="http://www.w3.org/2000/svg"><path d="m10.810547 2.9805332a8 8 0 0 0 -7.8105474 8.0429688 8.0000004 8.0000004 0 0 0 16.0000004 0 8 8 0 0 0 -8.189453-8.0429688zm.189453 1.9980468c3.308423 0 6 2.6915772 6 6 0 3.308423-2.691577 5.999999-6 5.999999-3.3084234 0-6.0000004-2.691576-6.0000004-5.999999 0-3.3084228 2.691577-6 6.0000004-6zm .400391 1c-.4 0-.400391.4179688-.400391.4179688v4.7890622c-.384502-.136042-.670523-.206361-1.0996094-.207031-1.546397 0-2.900391.89543-2.900391 1.999999 0 1.10457 1.453603 2 3 2 1.5463984 0 3.0000014-.89543 3.0000014-2v-4.999999s2.26729 1.1586675 1.324218 2.023438c-.259008.14857-.344328.378196-.298828.578125.06909.303608.439979.538683.953125.320312.771015-.401989 1.021484-1.1226563 1.021484-1.7226562 0-1.8-2.999608-3.1992188-4.599609-3.1992188z" fill="#d3dae3"/></svg>

<svg xmlns="http://www.w3.org/2000/svg" width="22" height="22" version="1.1">
 <defs>
  <style id="current-color-scheme" type="text/css">
   .ColorScheme-Text { color:#d3dae3; } .ColorScheme-Highlight { color:#5294e2; }
  </style>
 </defs>
 <path style="fill:currentColor" class="ColorScheme-Text" d="M 10.810547,2.9805332 A 8,8 0 0 0 2.9999996,11.023502 8.0000004,8.0000004 0 0 0 19,11.023502 8,8 0 0 0 10.810547,2.9805332 Z M 11,4.97858 c 3.308423,0 6,2.6915772 6,6 0,3.308423 -2.691577,5.999999 -6,5.999999 -3.3084234,0 -6.0000004,-2.691576 -6.0000004,-5.999999 0,-3.3084228 2.691577,-6 6.0000004,-6 z m 0.400391,1 C 11.000391,5.97858 11,6.3965488 11,6.3965488 l 0,4.7890622 C 10.615498,11.049569 10.329477,10.97925 9.9003906,10.97858 c -1.546397,0 -2.900391,0.89543 -2.900391,1.999999 0,1.10457 1.453603,2 3,2 1.5463984,0 3.0000014,-0.89543 3.0000014,-2 l 0,-4.999999 c 0,0 2.26729,1.1586675 1.324218,2.023438 -0.259008,0.14857 -0.344328,0.378196 -0.298828,0.578125 0.06909,0.303608 0.439979,0.538683 0.953125,0.320312 C 15.749531,10.498466 16,9.7777987 16,9.1777988 16,7.3777988 13.000392,5.97858 11.400391,5.97858 Z"/>
</svg>
